X: 1
T: the Lad o' Kyle
T: Rantin' Rovin' Robin
T: There was a Lad was Born in Kyle
R: march
Z: 2006 John Chambers <jc:trillian.mit.edu>
S: SRSNH 2.14 (12/89)
M: C|
L: 1/8
K: D
A2 \
| "D"D2D2 A2DE | "A7"F2E2 E2FE | "D"D2D2 A2DE | "D"F2d2 "(A7)"A3A |
| "G"BcdA "D"F2AF | "Em"BAGF "A7"E2FE | "D"D2d2 "A7"ABAG | "D"F2D2 D2 |]
A2 \
|  "D"d2d2 "Bm"d2fd | "Em"edef "A7"e2dB | "D"ABde defe | "D"d2A2 B2A2 |
| "G"BcdA "D"F2AF | "Em"BAGF "A7"E2FE | "D"D2d2 "A7"ABAG | "D"F2D2 D2 |]
